X: 16335
T: Gucci's
R: reel
M: 4/4
K: Dmajor
|:FBBA Bcde|f2 df efdA|BAFB ABde|fdaf e2 dA|
BAFB ABde|fd d2 edBc|dAFB ABde|1 fgfe d2 dA:|2 fgfe defg||
af f2 bfaf|f2 af dfec|dA A2 ABde|fdaf e2 fg|
af f2 bfaf|f2 af dfec|dAFB ABde|fgfe d2 fg|
af f2 bfaf|f2 af dfec|dA A2 ABde|fdaf e2 fg|
af f2 bf f2|afdf edBc|dAFB ABde|fgfe d2 dA||

